!!!!SEGMENT: ss081-OrientalMusic_M.krn
!!!COM: J.S. Zamecnik
!!!OTL: Oriental Music
!!!OPR:Sam Fox Moving Picture Music, Volume2
!!!YOY:1913
!!!ONB: National
**kern	**dynam
*>[A,A1,A2,B,B,C,C1,C2,D,E,E1,E,E2]	*>[A,A1,A2,B,B,C,C1,C2,D,E,E1,E,E2]
*clefG2	*
*k[]	*
*a:	*
*M2/2	*
*met(c|)	*
*>A	*>A
=1	=1
!LO:TX:a:B:t=Allegro moderato	!
8aL	mf
8b	.
8cc	.
8bJ	.
4a	.
4e	.
=2	=2
4a	.
4f	.
4a	.
4e	.
=3	=3
8aL	.
8b	.
8cc	.
8ddJ	.
4ee	.
4aa	.
=4	=4
2gg^	.
2gg^	.
*>A1	*>A1
=5	=5
8aL	.
8b	.
8cc	.
8bJ	.
4a	.
4e	.
=6	=6
4a	.
4f	.
4a	.
4e	.
=7	=7
2g^	f
2g^	.
=8	=8
8fL	.
8e	.
8d	.
8eJ	.
2c	.
*>A2	*>A2
=9:|	=9:|
2ee^	f
2ee^	.
=10	=10
8eeL	.
8ff#X	.
8gg	.
8ff#J	.
2ee	.
=11	=11
2ee^	.
2ee^	.
=12	=12
8eeL	.
8ff#X	.
8gg	.
8ff#J	.
2ee	.
=13	=13
2bb^	ff
2bb^	.
=14	=14
8aaL	.
8gg	.
8ff#X	.
8aaJ	.
4gg	.
4ee	.
=15	=15
4ff#X	.
4dd#X	.
4ee	.
4cc	.
=16	=16
8bL	.
8a	.
8g	.
8f#XJ	.
4e	.
4r	.
*>B	*>B
=17!|:	=17!|:
2ff	mf
2ff	<
=18	=18
2ff	.
2ff	[
=19	=19
4.ff	.
8ee	>
4.ff	.
8ee	.
=20	=20
8ffL	.
8ee	.
8ff	.
8eeJ	.
4ff	]
4r	.
=21	=21
2gg	<
2gg	.
=22	=22
2gg	.
2gg	[
=23	=23
4.gg	.
8ff#X	>
4.gg	.
8ff#	.
=24	=24
8ggL	.
8ff#X	.
8gg	.
8ff#J	.
4gg	]
4r	.
=25	=25
2ee	p
2ee	.
=26	=26
8ddL	.
8cc	.
8b	.
8ccJ	.
8aL	.
8b	.
8cc	.
8ddJ	.
=27	=27
2ee	.
2ee	.
=28	=28
8ddL	.
8cc	.
8b	.
8ccJ	.
8aL	<
8b	.
8cc	.
8eeJ	[
=29	=29
2aa^	f
2aa^	.
=30	=30
2aa^	.
2aa^	.
=31	=31
[2ee	.
8eeL]	.
8ff#X	.
8gg#X	.
8eeJ	.
=32	=32
4aa	.
4r	.
4aa^	.
4r	.
*>C	*>C
=33:|	=33:|
*k[]	*
*C:	*
!LO:TX:a:B:t=TRIO	!
1r	.
=34	=34
1r	.
=35	=35
1r	.
=36	=36
1r	.
=37!|:	=37!|:
[1cc	p
=38	=38
4cc]	.
(4b	.
4a)	.
4g	.
=39	=39
4a	.
(4g	.
4f)	.
4e	.
=40	=40
4d	.
4e	.
4f	.
4g	.
=41	=41
2e	.
[2e	.
=42	=42
4e]	.
4d	.
4c	.
4d	.
*>C1	*>C1
=43	=43
[1e	.
=44	=44
1e]	.
*>C2	*>C2
=45:|	=45:|
[1c	.
=46	=46
1c]	.
*>D	*>D
=47||	=47||
[1g	<
=48	=48
4g]	.
(4f#X	.
4e)	.
4f#	.
=49	=49
4g	.
(4a	.
4b)	.
4cc	.
=50	=50
4b	[
4a	.
4g	.
4a	.
=51	=51
2b	.
[2b	.
=52	=52
4b]	>
4a	.
4g	.
4a	.
=53	=53
[1b	.
=54	=54
1b]	]]
=55	=55
[1b	<
=56	=56
4b]	.
(4a	.
4g)	.
4a	.
=57	=57
4b	.
(4cc	.
4dd)	.
4ee	.
=58	=58
4dd	[
4cc	.
4b	.
4cc	.
=59	=59
2dd	.
[2dd	.
=60	=60
4dd]	>
4cc	.
4b	.
4a	.
=61	=61
[1g	.
=62	=62
1g]	]]
=63!|:	=63!|:
[1cc	.
=64	=64
4cc]	p
(4b	.
4a)	.
4g	.
=65	=65
4a	.
(4g	.
4f)	.
4e	.
=66	=66
4d	.
4e	.
4f	.
4g	.
=67	=67
2e	.
[2e	.
=68	=68
4e]	.
4d	.
4c	.
4d	.
*>D1	*>D1
=69	=69
[1e	.
=70	=70
1e]	.
*>D2	*>D2
=71:|	=71:|
1c	.
=72	=72
4d	.
4e	.
4f	.
4d	.
=73	=73
1g	.
=74	=74
4d	.
4e	.
4f	.
4d	.
=75	=75
1c	.
=76	=76
1c	.
=77	=77
[1c	.
=78	=78
4c]	.
4r	.
!LO:TX:b:i:t=D.C. ad lib.	!
2r	.
==	==
*-	*-
!!!ENC: Yukiko Yoden
!!!END: 2022/03/21